<?xml version='1.0' encoding='UTF-8'?>
<map version="1.10" tiledversion="1.12.2" orientation="orthogonal" renderorder="right-down" width="30" height="20" tilewidth="16" tileheight="16" infinite="0" nextlayerid="11" nextobjectid="43">
  <properties>
    <property name="edges" value="clamped" />
    <property name="inside" type="bool" value="true" />
    <property name="map_type" value="notype" />
    <property name="scenario" value="xero" />
    <property name="slug" value="azure_town_hall" />
  </properties>
  <tileset firstgid="1" name="Office_interiors_shadowless_16x16" tilewidth="16" tileheight="16" tilecount="528" columns="22">
    <image source="../gfx/tilesets/Office_interiors_shadowless_16x16.png" width="352" height="384" />
  </tileset>
  <tileset firstgid="529" source="../gfx/tilesets/core_indoor_floors.tsx" />
  <tileset firstgid="4393" source="../gfx/tilesets/core_set pieces.tsx" />
  <layer id="1" name="Tile Layer 1" width="30" height="20">
    <data encoding="csv">
1651,1651,1651,1651,1651,1651,1651,1651,1651,1651,1651,1651,1651,1651,1651,1651,1651,1651,1651,1651,1651,1651,1651,1651,1651,1651,1651,1651,1651,1651,
1651,1651,1651,1651,1651,1651,1651,1651,1651,1651,1651,1651,1651,1651,1651,1651,1651,1651,1651,1651,1651,1651,1651,1651,1651,1651,1651,1651,1651,1651,
1651,1651,1651,1651,1651,1651,1651,1651,1651,1651,1651,1651,1651,1651,1651,1651,1651,1651,1651,1651,1651,1651,1651,1651,1651,1651,1651,1651,1651,1651,
1651,1651,1651,1651,1651,1651,1651,1651,1651,1651,1651,1651,1651,1651,1651,1651,1651,1651,1651,1651,1651,1651,1651,1651,1651,1651,1651,1651,1651,1651,
1651,1651,1651,1651,1651,1651,1651,1651,1651,1651,1651,1651,1651,1651,1651,1651,1651,1651,1651,1651,1651,1651,1651,1651,1651,1651,1651,1651,1651,1651,
1651,1651,1651,1651,1651,1651,1651,1651,1651,1651,1651,1651,1651,1651,1651,1651,1651,1651,1651,1651,1651,1651,1651,1651,1651,1651,1651,1651,1651,1651,
1651,1651,1651,1651,1651,1651,1651,1651,1651,1651,1651,1651,1651,1651,1651,1651,1651,1651,1651,1651,1651,1651,1651,1651,1651,1651,1651,1651,1651,1651,
1651,1651,1651,1651,1651,1651,1651,1651,1651,1651,1651,1651,1651,1651,1651,1651,1651,1651,1651,1651,1651,1651,1651,1651,1651,1651,1651,1651,1651,1651,
1651,1651,1651,1651,1651,1651,1651,1651,1651,1651,1651,1651,1651,1651,1651,1651,1651,1651,1651,1651,1651,1651,1651,1651,1651,1651,1651,1651,1651,1651,
1651,1651,1651,1651,1651,1651,1651,1651,1651,1651,1651,1651,1651,1651,1651,1651,1651,1651,1651,1651,1651,1651,1651,1651,1651,1651,1651,1651,1651,1651,
1651,1651,1651,1651,1651,1651,1651,1651,1651,1651,1651,1651,1651,1651,1651,1651,1651,1651,1651,1651,1651,1651,1651,1651,1651,1651,1651,1651,1651,1651,
1651,1651,1651,1651,1651,1651,1651,1651,1651,1651,1651,1651,1651,1651,1651,1651,1651,1651,1651,1651,1651,1651,1651,1651,1651,1651,1651,1651,1651,1651,
1651,1651,1651,1651,1651,1651,1651,1651,1651,1651,1651,1651,1651,1651,1651,1651,1651,1651,1651,1651,1651,1651,1651,1651,1651,1651,1651,1651,1651,1651,
1651,1651,1651,1651,1651,1651,1651,1651,1651,1651,1651,1651,1651,1651,1651,1651,1651,1651,1651,1651,1651,1651,1651,1651,1651,1651,1651,1651,1651,1651,
1651,1651,1651,1651,1651,1651,1651,1651,1651,1651,1651,1651,1651,1651,1651,1651,1651,1651,1651,1651,1651,1651,1651,1651,1651,1651,1651,1651,1651,1651,
1651,1651,1651,1651,1651,1651,1651,1651,1651,1651,1651,1651,1651,1651,1651,1651,1651,1651,1651,1651,1651,1651,1651,1651,1651,1651,1651,1651,1651,1651,
1651,1651,1651,1651,1651,1651,1651,1651,1651,1651,1651,1651,1651,1651,1651,1651,1651,1651,1651,1651,1651,1651,1651,1651,1651,1651,1651,1651,1651,1651,
1651,1651,1651,1651,1651,1651,1651,1651,1651,1651,1651,1651,1651,1651,1651,1651,1651,1651,1651,1651,1651,1651,1651,1651,1651,1651,1651,1651,1651,1651,
1651,1651,1651,1651,1651,1651,1651,1651,1651,1651,1651,1651,1651,1651,1651,1651,1651,1651,1651,1651,1651,1651,1651,1651,1651,1651,1651,1651,1651,1651,
1651,1651,1651,1651,1651,1651,1651,1651,1651,1651,1651,1651,1651,1651,1651,1651,1651,1651,1651,1651,1651,1651,1651,1651,1651,1651,1651,1651,1651,1651
</data>
  </layer>
  <layer id="2" name="Tile Layer 2" width="30" height="20">
    <data encoding="csv">
0,5112,0,0,0,0,0,0,0,0,0,5112,0,0,0,0,0,0,0,0,0,5112,0,0,0,0,0,0,0,4982,
0,1525,1525,1525,1525,1525,1525,1525,1525,0,0,1525,1525,1525,1525,1525,1525,1525,1525,0,0,1525,1525,1525,1525,1525,1525,1525,1525,0,
0,1525,1707,1707,1707,1707,1707,1707,1525,0,0,1525,1707,1707,1707,1707,1707,1707,1525,0,0,1525,1707,1707,1707,1707,1707,1707,1525,0,
0,1525,1707,1707,1707,1707,1707,1707,1525,0,0,1525,1707,1707,1707,1707,1707,1707,1525,0,0,1525,1707,1707,1707,1707,1707,1707,1525,0,
0,1525,1707,1707,1707,1707,1707,1707,1525,0,0,1525,1707,1707,1707,1707,1707,1707,1525,0,0,1525,1707,1707,1707,1707,1707,1707,1525,0,
0,1525,1707,1707,1707,1707,1707,1707,1525,0,0,1525,1707,1707,1707,1707,1707,1707,1525,0,0,1525,1707,1707,1707,1707,1707,1707,1525,0,
0,1525,1707,1707,1707,1707,1707,1707,1525,0,0,1525,1707,1707,1707,1707,1707,1707,1525,0,0,1525,1707,1707,1707,1707,1707,1707,1525,0,
0,1525,1525,1525,1525,1525,1525,1525,1525,0,0,1525,1525,1525,1525,1525,1525,1525,1525,0,0,1525,1525,1525,1525,1525,1525,1525,1525,0,
0,4854,4854,4854,0,4854,4854,4854,5111,0,0,4854,4854,4854,0,4854,4854,4854,5111,0,0,4854,4854,4854,0,4854,4854,4854,5111,0,
0,0,0,0,0,0,0,0,0,0,0,0,0,0,0,0,0,0,0,0,0,0,0,0,0,0,0,0,0,0,
0,0,2684354847,2684354827,2684354827,2684354827,2684354827,2684354825,0,0,0,0,2684354847,2684354827,2684354827,2684354827,2684354827,2684354825,0,0,0,0,2684354847,2684354827,2684354827,2684354827,2684354827,2684354825,0,0,
0,0,2684354848,2684354828,2684354828,2684354828,2684354828,2684354826,0,0,0,0,2684354848,2684354828,2684354828,2684354828,2684354828,2684354826,0,0,0,0,2684354848,2684354828,2684354828,2684354828,2684354828,2684354826,0,0,
0,0,0,0,0,0,0,0,0,0,0,0,0,0,0,0,0,0,0,0,0,0,0,0,0,0,0,0,0,0,
0,0,2684354847,2684354827,2684354827,2684354827,2684354827,2684354825,0,0,0,0,2684354847,2684354827,2684354827,2684354827,2684354827,2684354825,0,0,0,0,2684354847,2684354827,2684354827,2684354827,2684354827,2684354825,0,0,
0,0,2684354848,2684354828,2684354828,2684354828,2684354828,2684354826,0,0,0,0,2684354848,2684354828,2684354828,2684354828,2684354828,2684354826,0,0,0,0,2684354848,2684354828,2684354828,2684354828,2684354828,2684354826,0,0,
0,0,0,0,0,0,0,0,0,0,0,0,0,0,0,0,0,0,0,0,0,0,0,0,0,0,0,0,0,0,
0,0,5514,5515,5516,0,0,5514,5515,5516,0,0,0,0,0,0,0,0,0,0,0,0,0,0,0,0,0,0,0,5551,
0,0,5545,5546,5547,0,0,5545,5546,5547,4930,0,0,0,371,0,371,0,0,0,0,0,0,0,0,0,4617,4618,0,5582,
0,0,0,0,0,0,0,0,0,0,4961,0,0,0,393,1233,393,0,4535,4441,4534,0,0,0,0,0,4648,4649,0,5613,
0,0,0,0,0,0,0,0,0,0,0,0,0,0,415,1233,415,0,0,5553,0,0,0,0,0,0,0,0,0,5618
</data>
  </layer>
  <layer id="3" name="Tile Layer 3" width="30" height="20">
    <data encoding="csv">
0,0,0,0,0,0,0,0,0,0,0,0,0,0,0,0,0,0,0,0,0,0,0,0,0,0,0,0,0,0,
0,0,0,0,0,0,0,0,0,0,0,0,0,0,0,0,0,0,0,0,0,0,0,0,0,0,0,0,0,0,
0,0,2522,2523,2523,2523,2523,2524,0,0,0,0,2522,2523,2523,2523,2523,2524,0,0,0,0,2522,2523,2523,2523,2523,2524,0,0,
0,0,2614,2615,2615,2615,2615,2616,0,0,0,0,2614,2615,2615,2615,2615,2616,0,0,0,0,2614,2615,2615,2615,2615,2616,0,0,
0,0,2614,2615,2615,2615,2615,2616,0,0,0,0,2614,2615,2615,2615,2615,2616,0,0,0,0,2614,2615,2615,2615,2615,2616,0,0,
0,0,2614,2615,2615,2615,2615,2616,0,0,0,0,2614,2615,2615,2615,2615,2616,0,0,0,0,2614,2615,2615,2615,2615,2616,0,0,
0,0,2660,2661,2661,2661,2661,2662,0,0,0,0,2660,2661,2661,2661,2661,2662,0,0,0,0,2660,2661,2661,2661,2661,2662,0,0,
0,0,0,0,0,0,0,0,0,0,0,0,0,0,0,0,0,0,0,0,0,0,0,0,0,0,0,0,0,0,
0,0,0,0,0,0,0,0,0,0,0,0,0,0,0,0,0,0,0,0,0,0,0,0,0,0,0,0,0,0,
0,0,0,0,0,0,0,0,0,0,0,0,0,0,0,0,0,0,0,0,0,0,0,0,0,0,0,0,0,0,
0,0,0,0,0,0,0,0,0,0,0,0,0,0,0,0,0,0,0,0,0,0,0,0,0,0,0,0,0,0,
0,0,0,0,0,0,0,0,0,0,0,0,0,0,0,0,0,0,0,0,0,0,0,0,0,0,0,0,0,0,
0,0,0,0,0,0,0,0,0,0,0,0,0,0,0,0,0,0,0,0,0,0,0,0,0,0,0,0,0,0,
0,0,0,0,0,0,0,0,0,0,0,0,0,0,0,0,0,0,0,0,0,0,0,0,0,0,0,0,0,0,
0,0,0,0,0,0,0,0,0,0,0,0,0,0,0,0,0,0,0,0,0,0,0,0,0,0,0,0,0,0,
0,0,0,0,0,0,0,0,0,0,0,0,0,0,0,0,0,0,0,0,0,0,0,0,0,0,0,0,0,0,
0,0,0,0,0,0,0,0,0,0,0,0,0,0,0,0,0,0,0,0,0,0,0,0,0,0,0,0,0,0,
0,0,0,0,0,0,0,0,0,0,0,0,0,0,0,0,0,0,0,0,0,0,0,0,0,0,0,0,0,0,
0,0,0,0,0,0,0,0,0,0,0,0,0,0,0,0,0,0,0,0,0,0,0,0,0,0,0,0,0,0,
0,0,0,0,0,0,0,0,0,0,0,0,0,0,0,0,0,0,0,0,0,0,0,0,0,0,0,0,0,0
</data>
  </layer>
  <layer id="4" name="Above Player" width="30" height="20">
    <data encoding="csv">
0,0,0,0,0,0,0,0,0,0,0,0,0,0,0,0,0,0,0,0,0,0,0,0,0,0,0,0,0,0,
0,0,0,0,0,0,0,0,0,0,0,0,0,0,0,0,0,0,0,0,0,0,0,0,0,0,0,0,0,0,
0,0,0,0,0,0,0,0,0,0,0,0,0,0,0,0,0,0,0,0,0,0,0,0,0,0,0,0,0,0,
0,0,0,0,0,0,0,0,0,0,0,0,0,0,0,0,0,0,0,0,0,0,0,0,0,0,0,0,0,0,
0,0,0,0,0,0,0,0,0,0,0,0,0,0,0,0,0,0,0,0,0,0,0,0,0,0,0,0,0,0,
0,0,0,0,0,0,0,0,0,0,0,0,0,0,0,0,0,0,0,0,0,0,0,0,0,0,0,0,0,0,
0,0,0,0,0,0,0,0,0,0,0,0,0,0,0,0,0,0,0,0,0,0,0,0,0,0,0,0,0,0,
0,0,0,0,0,0,0,0,0,0,0,0,0,0,0,0,0,0,0,0,0,0,0,0,0,0,0,0,0,0,
0,0,0,0,0,0,0,0,0,0,0,0,0,0,0,0,0,0,0,0,0,0,0,0,0,0,0,0,0,0,
0,0,0,0,0,0,0,0,0,0,0,0,0,0,0,0,0,0,0,0,0,0,0,0,0,0,0,0,0,0,
0,0,0,0,0,0,0,0,0,0,0,0,0,0,0,0,0,0,0,0,0,0,0,0,0,0,0,0,0,0,
0,0,0,0,0,0,0,0,0,0,0,0,0,0,0,0,0,0,0,0,0,0,0,0,0,0,0,0,0,0,
0,0,0,0,0,0,0,0,0,0,0,0,0,0,0,0,0,0,0,0,0,0,0,0,0,0,0,0,0,0,
0,0,0,0,0,0,0,0,0,0,0,0,0,0,0,0,0,0,0,0,0,0,0,0,0,0,0,0,0,0,
0,0,0,0,0,0,0,0,0,0,0,0,0,0,0,0,0,0,0,0,0,0,0,0,0,0,0,0,0,0,
0,0,0,0,0,0,0,0,0,0,0,0,0,0,0,0,0,0,0,0,0,0,0,0,0,0,0,0,0,0,
0,0,0,0,0,0,0,0,0,0,0,0,0,0,0,0,0,0,0,0,0,0,0,0,0,0,0,0,0,0,
0,0,0,0,0,0,0,0,0,0,0,0,0,0,0,0,0,0,0,0,0,0,0,0,0,0,0,0,0,0,
0,0,0,0,0,0,0,0,0,0,0,0,0,0,0,0,0,0,0,0,0,0,0,0,0,0,0,0,0,0,
0,0,0,0,0,0,0,0,0,0,0,0,0,0,0,0,0,0,0,0,0,0,0,0,0,0,0,0,0,0
</data>
  </layer>
  <objectgroup id="3" name="events">
    <object id="1" name="Exit To Azure Town" type="event" x="240.17" y="303.513" width="16" height="16">
      <properties>
        <property name="act10" value="transition_teleport player,candy_town.tmx,17,20,0.3" />
        <property name="cond10" value="is char_at player" />
        <property name="cond20" value="is char_facing player,down" />
      </properties>
    </object>
  </objectgroup>
  <objectgroup id="9" name="Collisions">
    <object id="11" x="32" y="256" width="48" height="32" />
    <object id="15" type="collision" x="33.1001" y="256.526" width="47.2163" height="31.6398" />
    <object id="16" type="collision" x="111.469" y="257.499" width="48.1898" height="29.6927" />
    <object id="18" type="collision" x="224.886" y="289.139" width="14.1162" height="30.6663" />
    <object id="19" type="collision" x="258.473" y="290.599" width="12.1692" height="29.206" />
    <object id="20" type="collision" x="239.976" y="128.019" width="63.7664" height="15.0897" />
    <object id="21" type="collision" x="175.723" y="128.993" width="47.2163" height="15.0897" />
    <object id="22" type="collision" x="80.3164" y="129.967" width="63.7664" height="14.1162" />
    <object id="23" type="collision" x="15.5765" y="127.533" width="49.1634" height="16.55" />
    <object id="24" type="collision" x="16.55" y="0" width="14.603" height="15.5765" />
    <object id="25" type="collision" x="175.723" y="0.486766" width="16.0633" height="15.5765" />
    <object id="26" type="collision" x="336.842" y="0.973532" width="14.1162" height="14.1162" />
    <object id="27" type="collision" x="336.842" y="128.993" width="46.2428" height="13.6294" />
    <object id="28" type="collision" x="400.608" y="128.993" width="62.3061" height="14.603" />
    <object id="29" type="collision" x="415.698" y="273.076" width="31.6398" height="30.6663" />
    <object id="30" type="collision" x="464.375" y="273.076" width="16.0633" height="45.756" />
  </objectgroup>
  <objectgroup id="7" name="layout_markers" visible="0">
    <object id="2" name="MAT 1" type="marker" x="16" y="16" width="128" height="112">
      <text wrap="1" halign="center" valign="center">MAT 1</text>
    </object>
    <object id="3" name="MAT 2" type="marker" x="176" y="16" width="128" height="112">
      <text wrap="1" halign="center" valign="center">MAT 2</text>
    </object>
    <object id="4" name="MAT 3" type="marker" x="336" y="16" width="128" height="112">
      <text wrap="1" halign="center" valign="center">MAT 3</text>
    </object>
    <object id="5" name="SPECTATOR BENCHES — FACE MATS" type="marker" x="32" y="160" width="416" height="80">
      <text wrap="1" halign="center" valign="center">SPECTATOR BENCHES — FACE MATS</text>
    </object>
    <object id="6" name="MERCHANDISE STALL" type="marker" x="432" y="128" width="48" height="64">
      <text wrap="1" halign="center" valign="center">MERCHANDISE STALL</text>
    </object>
    <object id="7" name="REGISTRATION" type="marker" x="208" y="256" width="48" height="48">
      <text wrap="1" halign="center" valign="center">REGISTRATION</text>
    </object>
    <object id="8" name="DR KIMURA MEDICAL EXAMINATION" type="marker" x="352" y="256" width="112" height="48">
      <text wrap="1" halign="center" valign="center">DR KIMURA MEDICAL EXAMINATION</text>
    </object>
    <object id="9" name="ENTRANCE CARPET" type="marker" x="224" y="288" width="48" height="32">
      <text wrap="1" halign="center" valign="center">ENTRANCE CARPET</text>
    </object>
  </objectgroup>
  <objectgroup color="#ffff00" id="31" name="jji_final_hall_npc_loader">
    <object id="32" name="Load Final Hall NPCs" type="event" x="0" y="0" width="16" height="16">
      <properties>
        <property name="act010" value="create_npc jji_koth_referee_left,5,4,stand" />
        <property name="act020" value="create_npc jji_koth_referee_center,15,4,stand" />
        <property name="act030" value="create_npc jji_koth_referee_right,25,4,stand" />
        <property name="act040" value="create_npc jji_koth_shopkeeper_left,3,18,stand" />
        <property name="act050" value="create_npc jji_koth_shopkeeper_right,8,18,stand" />
        <property name="act060" value="create_npc jji_dr_kimura,25,18,stand" />
        <property name="cond010" value="not char_exists jji_koth_referee_left" />
        <property name="act070" value="create_npc jji_koth_ceo,19,19,stand" />
        <property name="act080" value="char_face jji_dr_kimura,left" />
        <property name="act090" value="char_face jji_koth_ceo,up" />
      </properties>
    </object>
  </objectgroup>
  <objectgroup color="#ffff00" id="10" name="jji_final_hall_shop_interactions">
    <object id="33" name="JJI RND1 Apparel Dialogue" type="event" x="48" y="288" width="16" height="16">
      <properties>
        <property name="act10" value="translated_dialog jji_koth_rnd1_apparel" />
        <property name="cond10" value="is char_facing_tile player" />
        <property name="cond20" value="is button_pressed INTERACT" />
      </properties>
    </object>
    <object id="34" name="JJI Paddy Free Bottle" type="event" x="128" y="288" width="16" height="16">
      <properties>
        <property name="act10" value="translated_dialog jji_koth_paddy_intro" />
        <property name="act20" value="add_item potion,1" />
        <property name="act30" value="translated_dialog jji_koth_paddy_received" />
        <property name="act40" value="set_variable jji_paddys_free_bottle:received" />
        <property name="cond10" value="is char_facing_tile player" />
        <property name="cond20" value="is button_pressed INTERACT" />
        <property name="cond30" value="not variable_set jji_paddys_free_bottle:received" />
      </properties>
    </object>
    <object id="35" name="JJI Paddy Advertisement" type="event" x="128" y="288" width="16" height="16">
      <properties>
        <property name="act10" value="translated_dialog jji_koth_paddy_advert" />
        <property name="cond10" value="is char_facing_tile player" />
        <property name="cond20" value="is button_pressed INTERACT" />
        <property name="cond30" value="is variable_set jji_paddys_free_bottle:received" />
      </properties>
    </object>
  </objectgroup>
  <objectgroup color="#ffff00" id="32" name="jji_koth_ceo_interaction">
    <object id="36" name="JJI King Of The Hill CEO Dialogue" type="event" x="304" y="304" width="16" height="16">
      <properties>
        <property name="act10" value="translated_dialog jji_koth_ceo_dialogue" />
        <property name="cond10" value="is char_facing_tile player" />
        <property name="cond20" value="is button_pressed INTERACT" />
      </properties>
    </object>
  </objectgroup>
  <objectgroup id="33" name="jji_dr_kimura_interactions" color="#ffff00">
    <object id="37" name="JJI Dr Kimura Missing Medical Form" type="event" x="400" y="288" width="16" height="16">
      <properties>
        <property name="act10" value="translated_dialog jji_dr_kimura_medical_missing" />
        <property name="cond10" value="is char_facing_tile player" />
        <property name="cond20" value="is button_pressed INTERACT" />
        <property name="cond30" value="not has_item player,medical_form" />
        <property name="cond40" value="not variable_set jji_koth_medical_clearance:approved" />
      </properties>
    </object>
    <object id="38" name="JJI Dr Kimura Medical Clearance" type="event" x="400" y="288" width="16" height="16">
      <properties>
        <property name="act10" value="translated_dialog jji_dr_kimura_medical_approved" />
        <property name="act20" value="set_variable jji_koth_medical_clearance:approved" />
        <property name="cond10" value="is char_facing_tile player" />
        <property name="cond20" value="is button_pressed INTERACT" />
        <property name="cond30" value="is has_item player,medical_form" />
        <property name="cond40" value="not variable_set jji_koth_medical_clearance:approved" />
      </properties>
    </object>
    <object id="39" name="JJI Dr Kimura Cleared Reminder" type="event" x="400" y="288" width="16" height="16">
      <properties>
        <property name="act10" value="translated_dialog jji_dr_kimura_medical_reminder" />
        <property name="cond10" value="is char_facing_tile player" />
        <property name="cond20" value="is button_pressed INTERACT" />
        <property name="cond30" value="is variable_set jji_koth_medical_clearance:approved" />
      </properties>
    </object>
  </objectgroup>
  <objectgroup id="34" name="jji_koth_referee_interactions" color="#ffff00">
    <object id="40" name="JJI Left Referee Medical Warning" type="event" x="80" y="64" width="16" height="16">
      <properties>
        <property name="act10" value="translated_dialog jji_koth_referee_medical_warning" />
        <property name="cond10" value="is char_facing_tile player" />
        <property name="cond20" value="is button_pressed INTERACT" />
        <property name="cond30" value="not variable_set jji_koth_medical_clearance:approved" />
      </properties>
    </object>
    <object id="41" name="JJI Centre Referee Medical Warning" type="event" x="240" y="64" width="16" height="16">
      <properties>
        <property name="act10" value="translated_dialog jji_koth_referee_medical_warning" />
        <property name="cond10" value="is char_facing_tile player" />
        <property name="cond20" value="is button_pressed INTERACT" />
        <property name="cond30" value="not variable_set jji_koth_medical_clearance:approved" />
      </properties>
    </object>
    <object id="42" name="JJI Right Referee Medical Warning" type="event" x="400" y="64" width="16" height="16">
      <properties>
        <property name="act10" value="translated_dialog jji_koth_referee_medical_warning" />
        <property name="cond10" value="is char_facing_tile player" />
        <property name="cond20" value="is button_pressed INTERACT" />
        <property name="cond30" value="not variable_set jji_koth_medical_clearance:approved" />
      </properties>
    </object>
  </objectgroup>
</map>